X:1
T:Title
%%score { ( 1 3 ) | ( 2 4 ) }
L:1/8
M:4/4
K:Ab
V:1 treble nm="Grand Piano"
V:3 treble 
V:2 bass 
V:4 bass 
V:1
 z4 z2[Q:1/4=100] [CE]>[CF] | [CE]2 [A,C]>[CE] [CA]2 [CE]>[CA] | c2 B2 A2 [EA]>[EG] | %3
 F2 B>B A2 F2 | E2- [DE-]2 [CE]2[K:bass] [E,A,C]>[E,B,D] | [A,CE]2 C>E[K:treble] A2 [CE]>[CA] | %6
 [Ec]2 B2 A2 B>[Ec] | [FB]2 F>F [=Dc]2 [DB]2 |[M:7/8] B- B3 z z2 |[M:1/4] c>B | %10
[M:4/4] [CEA]2 [E_GA]>[EGA] [DFA]2 [A,DF]2 | A6 z2 | B2 B>c [=DB]2 F2 | B6 z2 | [EA]2 B2 c2 A>A | %15
[M:9/8] [FB]2 [Fc]- [Fc] [Fd]2- [Fd][Af]>[Af] |[M:4/4] [Ae]2 [=DAc]>[DA] [EAc]2 .[_DGB]2 | %17
[M:3/4] [CEA]6 |] %18
V:2
 z4 z2 [A,,A,]>[A,,A,] | [A,,A,]2 [A,,E,]>[A,,E,] [A,,E,]2 [A,,A,]>[A,,A,] | %2
 [A,E]2 [E,G,D]2 [F,A,C]2 [C,A,]>[C,A,] | [D,A,D]2 [D,F,D]>[D,F,D] [D,F,D]2 [D,A,D]2 | %4
 z2 B,2 A,2 A,,>A,, | A,,2 C,>E, A,2 [A,,A,]>[A,,A,] | [A,,A,]2 [E,G,D]2 [F,A,C]2 [E,G,E]>[A,,A,] | %7
 [D,A,]2 [D,A,]>[D,A,] [B,,A,]2 [B,,F,A,]2 |[M:7/8] D2 z2 [B,G]3 |[M:1/4] [E,A,E]>[E,DE] | %10
[M:4/4] A,,2 C,>C, D,2 D,2 | A,,2 D,2 A,,2 [A,,A,]>[A,,A,] | %12
 [E,G,E]2 [F,A,=D]>[F,A,D] [B,,F,]2 [A,B,D]2 | [G,B,E]2 [F,A,]2 [E,G,]2 [E,G,]>[E,G,] | %14
 [C,A,]2 [E,G,E]2 [A,E]2 [A,CE]>[A,CE] | %15
[M:9/8] [D,B,]2 [C,=A,]- [C,A,] [B,,B,]2- [B,,B,][=D,_C]>[D,C] |[M:4/4] [E,C]2 F,>F, E,2 z E | %17
[M:3/4] A,,6 |] %18
V:3
 x8 | x8 | x8 | x8 | [A,C]2 z2 z4[K:bass] | x4[K:treble] x4 | x8 | x8 |[M:7/8] z2 E2 e3 | %9
[M:1/4] x2 |[M:4/4] x8 | [CE]2 [DF]2 [CE]2 [Ec]>[Ec] | x8 | z2 =D2 _D2 E>E | x8 |[M:9/8] x9 | %16
[M:4/4] x8 |[M:3/4] x6 |] %18
V:4
 x8 | x8 | x8 | x8 | A,,6 z2 | x8 | x8 | x8 |[M:7/8] [E,G,]- [E,-G,]3 E,2- E,/ z/ |[M:1/4] x2 | %10
[M:4/4] x8 | x8 | x8 | x8 | x8 |[M:9/8] x9 |[M:4/4] z4 z2 E,2 |[M:3/4] x6 |] %18

